dist/img/woocommerce.svg

<svg width="158" height="32" viewBox="0 0 158 32" fill="none" xmlns="http://www.w3.org/2000/svg">
<path d="M46.0021 17.3406C46.8065 16.6153 47.3501 15.5384 47.6545 14.0878C47.7415 13.5823 47.8067 13.0329 47.8067 12.4615C47.8067 11.8241 47.6762 11.1428 47.4153 10.4615C47.0892 9.60431 46.6543 9.14278 46.1325 9.03289C45.3498 8.87904 44.5888 9.3186 43.8713 10.3955C43.2843 11.2307 42.9147 12.1098 42.719 13.0109C42.6103 13.5164 42.5668 14.0659 42.5668 14.6153C42.5668 15.2527 42.6973 15.934 42.9582 16.6153C43.2843 17.4724 43.7192 17.934 44.241 18.0439C44.7845 18.1538 45.3716 17.912 46.0021 17.3406Z" fill="#C4C4C4"/>
<path d="M34.0226 14.0878C33.7182 15.5384 33.1746 16.6153 32.3702 17.3406C31.7396 17.912 31.1526 18.1538 30.6091 18.0439C30.0872 17.934 29.6524 17.4724 29.3263 16.6153C29.0654 15.934 28.9349 15.2527 28.9349 14.6153C28.9349 14.0659 28.9784 13.5164 29.0871 13.0109C29.2828 12.1098 29.6524 11.2307 30.2394 10.3955C30.9569 9.3186 31.7179 8.87904 32.5006 9.03289C33.0224 9.14278 33.4573 9.60431 33.7834 10.4615C34.0443 11.1428 34.1748 11.8241 34.1748 12.4615C34.1748 13.0329 34.1313 13.5823 34.0226 14.0878Z" fill="#C4C4C4"/>
<path fill-rule="evenodd" clip-rule="evenodd" d="M5.93171 0H49.2203C51.9598 0 54.1775 2.24176 54.1775 5.01099V21.7143C54.1775 24.4835 51.9598 26.7253 49.2203 26.7253H33.6964L35.8271 32L26.4563 26.7253H5.95346C3.21395 26.7253 0.996252 24.4835 0.996252 21.7143V5.01099C0.97451 2.26373 3.19221 0 5.93171 0ZM3.64882 4.54934C3.95321 4.13175 4.4098 3.91197 5.01857 3.86802C6.12742 3.7801 6.75794 4.30758 6.91014 5.45044C7.58414 10.0438 8.32338 13.934 9.1061 17.1208L13.8676 7.95593C14.3025 7.12076 14.846 6.6812 15.4983 6.63725C16.4549 6.57131 17.042 7.1867 17.2811 8.4834C17.8247 11.4065 18.5204 13.89 19.3466 15.9999C19.9119 10.4175 20.8686 6.39549 22.2166 3.91197C22.5427 3.29659 23.0211 2.9889 23.6516 2.94494C24.1516 2.90099 24.6082 3.05483 25.0213 3.3845C25.4344 3.71417 25.6519 4.13175 25.6953 4.63725C25.7171 5.03285 25.6519 5.36253 25.4779 5.6922C24.63 7.27461 23.9342 9.93396 23.3689 13.6263C22.8254 17.2087 22.6297 19.9999 22.7601 21.9999C22.8036 22.5493 22.7167 23.0329 22.4992 23.4504C22.2383 23.934 21.847 24.1977 21.3469 24.2416C20.7816 24.2856 20.1946 24.0219 19.6293 23.4285C17.6073 21.3405 15.9983 18.2197 14.8243 14.0658C13.411 16.879 12.3674 18.9889 11.6934 20.3955C10.4106 22.879 9.32352 24.1537 8.41035 24.2197C7.82331 24.2636 7.32324 23.7581 6.8884 22.7032C5.77955 19.8241 4.58373 14.2636 3.30095 6.02187C3.23572 5.45044 3.34443 4.94494 3.64882 4.54934ZM50.394 7.99992C49.6113 6.61531 48.4589 5.78014 46.9152 5.45047C46.5021 5.36256 46.1108 5.3186 45.7412 5.3186C43.6539 5.3186 41.958 6.4175 40.6318 8.6153C39.5012 10.4834 38.9359 12.5494 38.9359 14.8131C38.9359 16.5054 39.2838 17.956 39.9795 19.1648C40.7622 20.5494 41.9146 21.3845 43.4582 21.7142C43.8713 21.8021 44.2627 21.8461 44.6323 21.8461C46.7413 21.8461 48.4372 20.7472 49.7417 18.5494C50.8723 16.6593 51.4376 14.5933 51.4376 12.3296C51.4376 10.6153 51.0897 9.18674 50.394 7.99992ZM33.2833 5.45047C34.8053 5.78014 35.9794 6.61531 36.7621 7.99992C37.4578 9.18674 37.8057 10.6153 37.8057 12.3296C37.8057 14.5933 37.2404 16.6593 36.1098 18.5494C34.8053 20.7472 33.1094 21.8461 31.0004 21.8461C30.6308 21.8461 30.2394 21.8021 29.8263 21.7142C28.2827 21.3845 27.1303 20.5494 26.3476 19.1648C25.6519 17.956 25.304 16.5054 25.304 14.8131C25.304 12.5494 25.8693 10.4834 26.9999 8.6153C28.3261 6.4175 30.022 5.3186 32.1093 5.3186C32.4789 5.3186 32.8702 5.36256 33.2833 5.45047Z" fill="#C4C4C4"/>
<path d="M57.504 13.3409C57.504 11.0991 58.2215 9.25296 59.6782 7.80241C61.135 6.35186 62.9613 5.62658 65.179 5.64856C66.0269 5.64856 66.8314 5.73648 67.5489 5.93428V9.49472C66.7662 9.27494 66.0487 9.16505 65.3747 9.16505C64.3311 9.16505 63.4831 9.56065 62.7874 10.3738C62.1134 11.165 61.7655 12.198 61.7655 13.4508C61.7655 14.7914 62.1133 15.8464 62.8091 16.6376C63.5048 17.4068 64.418 17.8024 65.5703 17.8024C66.1356 17.8024 66.7879 17.6925 67.5489 17.4727V21.0332C66.7227 21.2749 65.9617 21.3848 65.2877 21.3848C62.9613 21.3848 61.0915 20.6376 59.6565 19.165C58.2215 17.6925 57.504 15.7365 57.504 13.3409Z" fill="#C4C4C4"/>
<path fill-rule="evenodd" clip-rule="evenodd" d="M70.071 7.64856C71.2016 6.3079 72.767 5.62658 74.7673 5.62658C76.898 5.62658 78.5286 6.3079 79.681 7.64856C80.8116 9.0112 81.3769 10.9453 81.3769 13.4508C81.3769 15.9563 80.8116 17.9123 79.7027 19.2969C78.5939 20.6815 77.0067 21.3848 74.9412 21.3848C72.8105 21.3848 71.1798 20.6815 70.071 19.2969C68.9621 17.9123 68.3968 15.9123 68.3968 13.2969C68.3968 10.8793 68.9404 8.98922 70.071 7.64856ZM74.7673 17.9782C75.5065 17.9782 76.0935 17.6705 76.4849 17.0552C76.8762 16.4398 77.0937 15.209 77.1154 13.4068C77.1154 10.4837 76.3327 9.03318 74.8107 9.03318C73.354 9.03318 72.6365 10.4617 72.6365 13.3409C72.6365 15.209 72.8105 16.4398 73.1801 17.0552C73.5497 17.6705 74.0715 17.9782 74.7673 17.9782Z" fill="#C4C4C4"/>
<path d="M91.3348 9.40681L92.1175 6.04417H97.2921L99.2924 21.0112H95.3353L94.2699 10.7255L91.7913 21.0112H89.0953L86.508 10.7035L85.4861 21.0112H81.703L83.5946 6.04417H88.6387C89.3562 9.27494 89.9215 12.0442 90.3346 14.3738L90.7695 12.0442C90.9434 11.1431 91.1391 10.2639 91.3348 9.40681Z" fill="#C4C4C4"/>
<path d="M109.446 9.40681L110.229 6.04417H115.382L117.382 21.0112H113.425L112.359 10.7255L109.903 21.0112H107.207L104.619 10.7035L103.597 21.0112H99.8142L101.706 6.04417H106.75C107.467 9.27494 108.033 12.0442 108.446 14.3738L108.881 12.0442C109.055 11.1431 109.25 10.2639 109.446 9.40681Z" fill="#C4C4C4"/>
<path d="M126.079 15.0991H122.535V17.8464H126.644V21.0332H118.534V6.06614H126.622V9.25296H122.535V12.0002H126.079V15.0991Z" fill="#C4C4C4"/>
<path fill-rule="evenodd" clip-rule="evenodd" d="M138.537 10.6156C138.537 11.3409 138.319 12.0442 137.906 12.7255C137.493 13.4068 136.885 13.9123 136.124 14.264L139.32 21.0112H135.102L131.862 14.198H131.797V21.0112H127.796V6.04417H132.449C134.319 6.04417 135.819 6.46175 136.906 7.27493C137.993 8.08812 138.537 9.209 138.537 10.6156ZM131.775 8.92329V12.4837C133.536 12.4618 134.428 11.9343 134.428 10.9013C134.428 10.198 134.232 9.7145 133.819 9.40681C133.406 9.09911 132.732 8.94526 131.775 8.92329Z" fill="#C4C4C4"/>
<path d="M138.711 13.3409C138.711 11.0991 139.428 9.25296 140.885 7.80241C142.342 6.35186 144.19 5.62658 146.386 5.64856C147.234 5.64856 148.038 5.73648 148.756 5.93428V9.49472C147.973 9.27494 147.255 9.16505 146.581 9.16505C145.538 9.16505 144.69 9.56065 143.994 10.3738C143.32 11.165 142.972 12.198 142.972 13.4508C142.972 14.7914 143.32 15.8464 144.016 16.6376C144.712 17.4068 145.625 17.8024 146.777 17.8024C147.342 17.8024 147.995 17.6925 148.756 17.4727V21.0332C147.929 21.2749 147.169 21.3848 146.495 21.3848C144.168 21.3848 142.298 20.6376 140.863 19.165C139.428 17.6925 138.711 15.7365 138.711 13.3409Z" fill="#C4C4C4"/>
<path d="M153.865 15.0771V17.8244H157.996V21.0112H149.886V6.04417H157.974V9.23098H153.865V11.9782H157.409V15.0771H153.865Z" fill="#C4C4C4"/>
</svg>

<svg width="158" height="32" viewBox="0 0 158 32" fill="none" xmlns="http://www.w3.org/2000/svg"><path d="M46 17.34c.8-.72 1.35-1.8 1.65-3.25.1-.5.16-1.06.16-1.63 0-.64-.13-1.32-.4-2-.32-.86-.76-1.32-1.28-1.43-.78-.15-1.54.29-2.26 1.37a7.15 7.15 0 00-1.3 4.22c0 .63.13 1.31.39 2 .32.85.76 1.31 1.28 1.42.54.11 1.13-.13 1.76-.7zM34.02 14.09a5.84 5.84 0 01-1.65 3.25c-.63.57-1.22.81-1.76.7-.52-.1-.96-.57-1.28-1.42a5.63 5.63 0 01-.4-2 7.15 7.15 0 011.3-4.22c.73-1.08 1.49-1.52 2.27-1.37.52.11.96.57 1.28 1.43.26.68.4 1.36.4 2a7.8 7.8 0 01-.16 1.63z" fill="#C4C4C4"/><path fill-rule="evenodd" clip-rule="evenodd" d="M5.93 0h43.29a4.98 4.98 0 014.96 5.01v16.7a4.98 4.98 0 01-4.96 5.02H33.7L35.83 32l-9.37-5.27H5.96A4.98 4.98 0 011 21.7V5.01A4.96 4.96 0 015.93 0zM3.65 4.55c.3-.42.76-.64 1.37-.68 1.1-.09 1.74.44 1.89 1.58.67 4.6 1.41 8.48 2.2 11.67l4.76-9.16c.43-.84.98-1.28 1.63-1.32.95-.07 1.54.55 1.78 1.84A41.4 41.4 0 0019.35 16c.56-5.58 1.52-9.6 2.87-12.09.32-.61.8-.92 1.43-.97.5-.04.96.11 1.37.44.41.33.63.75.68 1.26.02.4-.05.72-.22 1.05-.85 1.58-1.55 4.24-2.11 7.94a41.37 41.37 0 00-.61 8.37c.04.55-.04 1.03-.26 1.45a1.4 1.4 0 01-1.15.8c-.57.04-1.16-.23-1.72-.82-2.02-2.09-3.63-5.21-4.8-9.36a413.77 413.77 0 00-3.14 6.33c-1.28 2.48-2.37 3.75-3.28 3.82-.59.04-1.09-.46-1.52-1.52-1.11-2.88-2.3-8.44-3.59-16.68-.06-.57.04-1.08.35-1.47zM50.39 8a5.01 5.01 0 00-3.47-2.55c-.42-.09-.8-.13-1.18-.13-2.09 0-3.78 1.1-5.1 3.3a11.74 11.74 0 00-1.7 6.2c0 1.69.34 3.14 1.04 4.34a5.01 5.01 0 003.48 2.55c.41.1.8.14 1.17.14 2.11 0 3.8-1.1 5.11-3.3a11.87 11.87 0 001.7-6.22c0-1.71-.35-3.14-1.05-4.33zM33.3 5.45A5.06 5.06 0 0136.75 8a8.39 8.39 0 011.05 4.33c0 2.26-.57 4.33-1.7 6.22-1.3 2.2-3 3.3-5.11 3.3-.37 0-.76-.05-1.17-.14a5.01 5.01 0 01-3.48-2.55 8.58 8.58 0 01-1.05-4.35c0-2.26.57-4.33 1.7-6.2 1.33-2.2 3.02-3.3 5.1-3.3.38 0 .77.05 1.18.14z" fill="#C4C4C4"/><path d="M57.5 13.34c0-2.24.72-4.09 2.18-5.54a7.36 7.36 0 015.5-2.15c.85 0 1.65.09 2.37.28V9.5a8.04 8.04 0 00-2.18-.32c-1.04 0-1.89.4-2.58 1.2a4.6 4.6 0 00-1.02 3.08c0 1.34.34 2.4 1.04 3.19.7.77 1.6 1.16 2.76 1.16.57 0 1.22-.1 1.98-.33v3.56c-.83.24-1.59.35-2.26.35a7.5 7.5 0 01-5.63-2.21c-1.44-1.48-2.16-3.43-2.16-5.83z" fill="#C4C4C4"/><path fill-rule="evenodd" clip-rule="evenodd" d="M70.07 7.65a5.82 5.82 0 014.7-2.02c2.13 0 3.76.68 4.91 2.02 1.13 1.36 1.7 3.3 1.7 5.8s-.57 4.46-1.68 5.85c-1.1 1.38-2.7 2.08-4.76 2.08-2.13 0-3.76-.7-4.87-2.08-1.1-1.39-1.67-3.39-1.67-6 0-2.42.54-4.31 1.67-5.65zm4.7 10.33c.74 0 1.32-.3 1.71-.92.4-.62.61-1.85.64-3.65 0-2.93-.79-4.38-2.3-4.38-1.47 0-2.18 1.43-2.18 4.31 0 1.87.17 3.1.54 3.72.37.61.9.92 1.59.92z" fill="#C4C4C4"/><path d="M91.33 9.4l.79-3.36h5.17l2 14.97h-3.95l-1.07-10.28L91.79 21h-2.7l-2.58-10.3L85.49 21H81.7l1.9-14.97h5.04c.72 3.23 1.28 6 1.7 8.33l.43-2.33c.17-.9.37-1.78.56-2.63zM109.45 9.4l.78-3.36h5.15l2 14.97h-3.95l-1.07-10.28L109.9 21h-2.7l-2.58-10.3L103.6 21H99.8l1.9-14.97h5.04c.72 3.23 1.28 6 1.7 8.33l.43-2.33c.18-.9.37-1.78.57-2.63zM126.08 15.1h-3.55v2.75h4.11v3.18h-8.1V6.07h8.08v3.18h-4.09V12h3.55v3.1z" fill="#C4C4C4"/><path fill-rule="evenodd" clip-rule="evenodd" d="M138.54 10.62a4.03 4.03 0 01-2.42 3.64l3.2 6.75h-4.22l-3.24-6.81h-.06V21h-4V6.04h4.65c1.87 0 3.37.42 4.46 1.23a3.96 3.96 0 011.63 3.35zm-6.76-1.7v3.56c1.76-.02 2.65-.55 2.65-1.58 0-.7-.2-1.19-.61-1.5-.41-.3-1.09-.45-2.04-.48z" fill="#C4C4C4"/><path d="M138.71 13.34a7.4 7.4 0 017.67-7.7 9 9 0 012.38.3v3.55a8.05 8.05 0 00-2.18-.32c-1.04 0-1.89.4-2.59 1.2a4.6 4.6 0 00-1.02 3.08c0 1.34.35 2.4 1.05 3.19.7.77 1.6 1.16 2.76 1.16.56 0 1.22-.1 1.98-.33v3.56c-.83.24-1.6.35-2.26.35a7.5 7.5 0 01-5.64-2.21c-1.43-1.48-2.15-3.43-2.15-5.83zM153.87 15.08v2.74H158v3.2h-8.11V6.03h8.08v3.2h-4.1v2.74h3.54v3.1h-3.54z" fill="#C4C4C4"/></svg>
